resources/svg/wallet-alt.svg

<svg xmlns="http://www.w3.org/2000/svg" viewBox="0 0 15 15" fill="currentColor"><path fill-rule="evenodd" clip-rule="evenodd" d="M14 12.5L14 10H14.4307C14.7451 10 15 9.74511 15 9.43069V5.56931C15 5.25489 14.7451 5 14.4307 5H14V2.5C14 1.67157 13.3284 1 12.5 1H1.5C0.671574 1 0 1.67157 0 2.5V12.5C0 13.3284 0.671571 14 1.5 14H12.5C13.3284 14 14 13.3284 14 12.5ZM14 6V9L9.5 9C8.67157 9 8 8.32843 8 7.5C8 6.67157 8.67157 6 9.5 6H14Z" fill="black"/></svg>

<svg xmlns="http://www.w3.org/2000/svg" viewBox="0 0 15 15" fill="currentColor"><path fill-rule="evenodd" clip-rule="evenodd" d="M14 12.5V10h.43a.57.57 0 00.57-.57V5.57a.57.57 0 00-.57-.57H14V2.5A1.5 1.5 0 0012.5 1h-11A1.5 1.5 0 000 2.5v10A1.5 1.5 0 001.5 14h11a1.5 1.5 0 001.5-1.5zM14 6v3H9.5a1.5 1.5 0 110-3H14z" fill="currentColor"/></svg>
